X:33
T:Mrs. Crowley's No. 2
Z: id:dc-polka-27
M:2/4
L:1/8
K:G Major
A/|BG G>A|BG G>B|AF DF|AB c/B/A|!
BG G>A|BG G>B|d/e/d/c/ AF|AG G3/2:|!
A/|Bd ce|dg B2|dc A2|ed B>A|!
Bd ce|dg B2|d/e/d/c/ AF|G2 G3/2:|!

